assets/symbols/mulberry/purse.svg

<svg height="850.394" viewBox="0 0 850.394 850.394" width="850.394" xmlns="http://www.w3.org/2000/svg"><path d="m750.68 306v240.23c0 62.17-50.41 112.579-112.58 112.579h-426.18c-62.18 0-112.58-50.409-112.58-112.579v-239.67l325.67 99.46z" fill="#be0000"/><path d="m750.68 292.81v13.19l-325.67 100.02-325.67-99.46v-116.43h650.45zm-292.13 33.4c0-19.48-15.79-35.28-35.28-35.28-19.48 0-35.28 15.8-35.28 35.28s15.8 35.28 35.28 35.28c19.49 0 35.28-15.8 35.28-35.28z" fill="#be0000"/><path d="m423.27 290.93c19.49 0 35.28 15.8 35.28 35.28s-15.79 35.28-35.28 35.28c-19.48 0-35.28-15.8-35.28-35.28s15.8-35.28 35.28-35.28z" fill="#c8c8c8"/><g fill="none"><g stroke="#000" stroke-width="20.249"><path d="m99.34 306.56v-116.43h650.45l.89 102.68v253.42c0 62.17-50.41 112.579-112.58 112.579h-426.18c-62.18 0-112.58-50.409-112.58-112.579z"/><path d="m99.34 306.56 325.67 99.46 325.67-100.02"/><path d="m458.55 326.21c0 19.48-15.79 35.28-35.28 35.28-19.48 0-35.28-15.8-35.28-35.28s15.8-35.28 35.28-35.28c19.49 0 35.28 15.8 35.28 35.28z"/></g><path d="m0 0h850.394v850.394h-850.394z"/></g></svg>

<svg xmlns="http://www.w3.org/2000/svg" width="850.394" height="850.394" viewBox="0 0 850.394 850.394" overflow="visible"><path d="M750.68 306v240.23c0 62.17-50.41 112.579-112.58 112.579H211.92c-62.18 0-112.58-50.409-112.58-112.579V306.56l325.67 99.46L750.68 306z" fill="#be0000"/><path d="M750.68 292.81V306L425.01 406.02 99.34 306.56V190.13h650.45l.89 102.68zm-292.13 33.4c0-19.48-15.79-35.28-35.28-35.28-19.48 0-35.28 15.8-35.28 35.28s15.8 35.28 35.28 35.28c19.49 0 35.28-15.8 35.28-35.28z" fill="#be0000"/><path d="M423.27 290.93c19.49 0 35.28 15.8 35.28 35.28s-15.79 35.28-35.28 35.28c-19.48 0-35.28-15.8-35.28-35.28s15.8-35.28 35.28-35.28z" fill="#c8c8c8"/><g fill="none" stroke="#000" stroke-width="20.249"><path d="M99.34 306.56V190.13h650.45l.89 102.68v253.42c0 62.17-50.41 112.579-112.58 112.579H211.92c-62.18 0-112.58-50.409-112.58-112.579V306.56z"/><path d="M99.34 306.56l325.67 99.46L750.68 306"/><path d="M458.55 326.21c0 19.48-15.79 35.28-35.28 35.28-19.48 0-35.28-15.8-35.28-35.28s15.8-35.28 35.28-35.28c19.49 0 35.28 15.8 35.28 35.28z"/></g><path fill="none" d="M0 0h850.394v850.394H0z"/></svg>
